img/space-to-let-v7.svg

<svg id="Layer_1" data-name="Layer 1" xmlns="http://www.w3.org/2000/svg" viewBox="0 0 750 492"><defs><style>.cls-1{fill:#fff100}</style></defs><title>Artboard 8</title><path class="cls-1" d="M.45.33h70.38v420.9h139.38v70.38H.45zM255.75.33h209.76v66.24H326.13v144.21h121.44V277H326.13v144.23h139.38v70.38H255.75zM598.68 66.57h-81.42V.33h233.22v66.24h-81.42v425h-70.38z"/></svg>

<svg id="Layer_1" data-name="Layer 1" xmlns="http://www.w3.org/2000/svg" viewBox="0 0 750 492"><defs><style>.cls-1{fill:#fff100;}</style></defs><title>Artboard 8</title><path class="cls-1" d="M.45.33H70.83v420.9H210.21v70.38H.45Z"/><path class="cls-1" d="M255.75.33H465.51V66.57H326.13V210.78H447.57V277H326.13V421.23H465.51v70.38H255.75Z"/><path class="cls-1" d="M598.68,66.57H517.26V.33H750.48V66.57H669.06v425H598.68Z"/></svg>
